src/icons/svg/setting-fill.svg

<?xml version="1.0" encoding="UTF-8"?>
<svg width="40px" height="43px" viewBox="0 0 40 43" version="1.1" xmlns="http://www.w3.org/2000/svg"
>
    <path d="M20.0076769,15.3659727 C18.5963957,15.3659727 17.2747946,15.9134931 16.2741538,16.914134 C15.2782329,17.9147748 14.7259925,19.2363759 14.7259925,20.647657 C14.7259925,22.0589382 15.2782329,23.3805393 16.2741538,24.3811801 C17.2747946,25.3771009 18.5963957,25.9293414 20.0076769,25.9293414 C21.418958,25.9293414 22.7405591,25.3771009 23.7411999,24.3811801 C24.7371208,23.3805393 25.2893612,22.0589382 25.2893612,20.647657 C25.2893612,19.2363759 24.7371208,17.9147748 23.7411999,16.914134 C22.7405591,15.9134931 21.418958,15.3659727 20.0076769,15.3659727 L20.0076769,15.3659727 Z"
          id="路径"></path>
    <path d="M39.4682529,26.4815819 L36.3813704,23.8430997 C36.5276905,22.9462989 36.6032106,22.0306182 36.6032106,21.1196574 C36.6032106,20.2086967 36.5276905,19.2882959 36.3813704,18.3962152 L39.4682529,15.757733 C39.9449733,15.3518127 40.1196135,14.6910121 39.9072133,14.0962916 L39.8647332,13.9735715 C39.0104125,11.5946896 37.7501715,9.40460776 36.1076101,7.47412617 L36.0226501,7.37500609 C35.6167297,6.89828569 34.9606492,6.71892555 34.3659287,6.92660572 L30.5332855,8.29068684 C29.1172844,7.12956589 27.5408031,6.21388513 25.8321617,5.5766846 L25.091121,1.5694013 C24.977841,0.951080785 24.4916806,0.469640388 23.87336,0.356360294 L23.7459199,0.332760275 C21.2915179,-0.110920092 18.7049558,-0.110920092 16.2505537,0.332760275 L16.1231136,0.356360294 C15.5047931,0.469640388 15.0186327,0.951080785 14.9053526,1.5694013 L14.159592,5.59556462 C12.4651106,6.23748515 10.8980693,7.1484459 9.49150817,8.30012685 L5.63054498,6.92660572 C5.0405445,6.71892555 4.37974395,6.89356569 3.97382362,7.37500609 L3.88886355,7.47412617 C2.24630219,9.41404777 0.986061149,11.5994096 0.131740444,13.9735715 L0.0892604086,14.0962916 C-0.123139767,14.6862921 0.0515003775,15.3470927 0.528220771,15.757733 L3.65286335,18.4245352 C3.50654323,19.3118959 3.43574317,20.2181367 3.43574317,21.1149374 C3.43574317,22.0211782 3.50654323,22.9274189 3.65286335,23.8053397 L0.537660779,26.4721419 C0.0609403852,26.8780622 -0.113699759,27.5388627 0.0987004164,28.1335832 L0.141180451,28.2563033 C0.995501157,30.6304653 2.2557422,32.8252671 3.89830355,34.7557487 L3.98326362,34.8548688 C4.38918396,35.3315892 5.0452645,35.5109493 5.63998499,35.3032691 L9.50094818,33.929748 C10.9075093,35.086149 12.4745506,36.0018297 14.169032,36.6343102 L14.9147926,40.6604736 C15.0280727,41.2787941 15.5142331,41.7602345 16.1325537,41.8735146 L16.2599938,41.8971146 C17.4919148,42.1189548 18.7474358,42.2322349 20.0076769,42.2322349 C21.2679179,42.2322349 22.5281589,42.1189548 23.7553599,41.8971146 L23.8828001,41.8735146 C24.5011206,41.7602345 24.987281,41.2787941 25.1005611,40.6604736 L25.8416017,36.6531903 C27.5502431,36.0112697 29.1267244,35.100309 30.5427255,33.939188 L34.3753687,35.3032691 C34.9653692,35.5109493 35.6261697,35.3363092 36.0320901,34.8548688 L36.1170501,34.7557487 C37.7596115,32.8158271 39.0198525,30.6304653 39.8741733,28.2563033 L39.9166533,28.1335832 C40.1196135,27.5483027 39.9449733,26.8922222 39.4682529,26.4815819 Z M20.0076769,28.9454239 C15.4245531,28.9454239 11.70991,25.2307808 11.70991,20.647657 C11.70991,16.0645333 15.4245531,12.3498902 20.0076769,12.3498902 C24.5908006,12.3498902 28.3054437,16.0645333 28.3054437,20.647657 C28.3054437,25.2307808 24.5908006,28.9454239 20.0076769,28.9454239 Z"
          id="形状"></path>
</svg>

<svg width="40" height="43" xmlns="http://www.w3.org/2000/svg"><path d="M20.008 15.366a5.237 5.237 0 0 0-3.734 1.548 5.257 5.257 0 0 0-1.548 3.734c0 1.41.552 2.733 1.548 3.733a5.257 5.257 0 0 0 3.734 1.548 5.257 5.257 0 0 0 3.733-1.548 5.257 5.257 0 0 0 1.548-3.733 5.257 5.257 0 0 0-1.548-3.734c-1-1-2.322-1.548-3.733-1.548z"/><path d="M39.468 26.482l-3.087-2.639a16.916 16.916 0 0 0 0-5.447l3.087-2.638a1.512 1.512 0 0 0 .44-1.662l-.043-.122a20.886 20.886 0 0 0-3.757-6.5l-.085-.099a1.516 1.516 0 0 0-1.657-.448L30.533 8.29a16.481 16.481 0 0 0-4.7-2.714l-.742-4.008c-.113-.618-.6-1.1-1.218-1.213l-.127-.023a21.27 21.27 0 0 0-7.495 0l-.128.023a1.513 1.513 0 0 0-1.218 1.213l-.745 4.027A16.682 16.682 0 0 0 9.492 8.3L5.63 6.927a1.51 1.51 0 0 0-1.657.448l-.085.1a21.048 21.048 0 0 0-3.757 6.499l-.043.122c-.212.59-.037 1.251.44 1.662l3.124 2.667a16.592 16.592 0 0 0-.217 2.69c0 .906.07 1.812.217 2.69L.538 26.472a1.512 1.512 0 0 0-.44 1.662l.043.122a20.94 20.94 0 0 0 3.757 6.5l.085.099a1.516 1.516 0 0 0 1.657.448L9.5 33.93a16.345 16.345 0 0 0 4.669 2.704l.746 4.026c.113.619.6 1.1 1.218 1.214l.127.023a21.158 21.158 0 0 0 7.495 0l.128-.023A1.513 1.513 0 0 0 25.1 40.66l.74-4.007a16.593 16.593 0 0 0 4.702-2.714l3.832 1.364a1.51 1.51 0 0 0 1.657-.448l.085-.1a21.048 21.048 0 0 0 3.757-6.499l.043-.122a1.523 1.523 0 0 0-.449-1.652zm-19.46 2.463a8.297 8.297 0 0 1-8.298-8.297 8.297 8.297 0 0 1 8.298-8.298 8.297 8.297 0 0 1 8.297 8.298 8.297 8.297 0 0 1-8.297 8.297z"/></svg>
